X:6455
T:Tenpenny Bit, The
T:Three Little Drummers, The
O:england
R:jig
M:6/8
K:Ador
eAA eAA|BAB GBd|eAA eAA|def gfg|eAA eAA|BAB GBd|~e3 gdB|BAG A3:|
|:eaa aga|bab age|eaa aga|bgf ~g3|eaa aga|bab ged|~e3 gdB|BAG A3:|
